X: 33063
T: Priest In His Boots, The
R: jig
M: 6/8
K: Gmajor
A|:ABA Adc|B3 ADD|DGG GFG|ADE FGA|
ABA Adc|B3 ADD|1 DGG BdB|cAF G3:|2 DGG BdB|cAF GBc||
|:dDD cDD|BDD ADD|DGG GFG|ADE FGA
d2B cBA|BdB AFE|DGG BdB|cAF GBc:|

